X:1
L:1/16
M:3/4
K:G
 D2 | G2G2 B2B2 d2d2 | g2g2 bagf g4 | eceg dBdg eceg | dBdg cAce dcBA | G2G2 B2B2 d2d2 | 
{/a} gfga bagf g4 | eceg dBdg cAce | dcBA A4 G2 :: D2 | GABc d2dB d2dB | g2gB cBcd c4 | 
 AB""^(*)""cd e2ec e2ec | a2ag fgef dfac' | bagf !wedge!g2!wedge!d2 !wedge!B2!wedge!g2 | 
 eceg fdfa g2""^c-not?"" z2 | eceg dBdg""^(*)"" cAce | dcBA A4 G2 :: D2 | GBdB GBdg dBdB | 
 Gcec Gceg ecec | A^cec Acea ecec | Ad^fd Adfa f2d2 | b""^c?""aba gagf dcBc | eceg""^(*)"" fdfa g4 | 
 eceg dBdg cAce | dcBA A4 G4 :|
